X: 269
T: The Hawk
R:reel
C:James Hill (originally)
S:Paul O'Shaughnessy who got it from Dermot McLaughlin
D:Paul O'Shaughnessy, Beginish
Z:Larry Sanger <larry:NUPEDIA.COM> irtrad-l 2001-02-14
N:first time through on the Beginish CD
M:4/4
K:D
A/B/c \
|: d2{e}dc defd | e/a/e ^df efge | {fa}fedc Bged | e^def eABc |
   dd{e}dc defd | e/f/e ^df efge | {fa}fedc Bgec |1 ed{e}dc dABc :|2 ed{e}dc d/d/dcB ||
|: Aafd     Bgec | Ad{e}dc d/d/c BA | BGcA dBec | fdgf e/f/e ef |
   g/b/g fg efdB | c/e/c Bc    ABGE | FAdf geAc |1 ed{e}dc d/d/d cB :|2 ed{e}dc d2 |]

%%sep 1 1 500

